X: 38641
T: Stormy Blues
R: reel
M: 4/4
K: Eminor
|:e3B cBAc|BEGB AFDF|Eee^d efge|effg fedB|
egbg fdBe|cAdB AFDF|Eeed BcdB|AFDF FE E2:|
|:BGEA FDAF|GE E2 DFAF|GFGA BE E2|FEDF FE E2|
BGEA FDAF|GE E2 DFAF|B3^c dAFA|FDAF GE E2:|

